X: 3964
T: Blackhaired Lass, The
R: reel
M: 4/4
K: Amixolydian
ed|cAAB cdec|d2 gd BGG2|cAAB cdec|dfec A3B|
cAAB cdec|d2 gd BGG2|cAAB cdec|dfec A2||
(3Bcd ef g3e|f3d gfed|(3Bcd ef g3e|fdec A2 A2|
(3Bcd ef g3e|f3d g2 fg|afge fdec|dfec A2 AB||

